img/usage/email.svg

<?xml version="1.0" encoding="UTF-8" standalone="no"?>
<!-- Created using Karbon, part of Calligra: http://www.calligra.org/karbon -->

<svg
   xmlns:dc="http://purl.org/dc/elements/1.1/"
   xmlns:cc="http://creativecommons.org/ns#"
   xmlns:rdf="http://www.w3.org/1999/02/22-rdf-syntax-ns#"
   xmlns:svg="http://www.w3.org/2000/svg"
   xmlns="http://www.w3.org/2000/svg"
   xmlns:xlink="http://www.w3.org/1999/xlink"
   xmlns:sodipodi="http://sodipodi.sourceforge.net/DTD/sodipodi-0.dtd"
   xmlns:inkscape="http://www.inkscape.org/namespaces/inkscape"
   width="64"
   height="64"
   id="svg3020"
   version="1.1"
   inkscape:version="0.48.4 r9939"
   sodipodi:docname="_.svg">
  <title
     id="title3557">_</title>
  <metadata
     id="metadata3037">
    <rdf:RDF>
      <cc:Work
         rdf:about="">
        <dc:format>image/svg+xml</dc:format>
        <dc:type
           rdf:resource="http://purl.org/dc/dcmitype/StillImage" />
        <cc:license
           rdf:resource="http://creativecommons.org/licenses/by-nc-sa/3.0/" />
        <dc:title>_</dc:title>
        <dc:creator>
          <cc:Agent>
            <dc:title>Christian Reiner</dc:title>
          </cc:Agent>
        </dc:creator>
        <dc:rights>
          <cc:Agent>
            <dc:title>Copyright 2012, Christian Reiner, Hamburg, Germany</dc:title>
          </cc:Agent>
        </dc:rights>
        <dc:publisher>
          <cc:Agent>
            <dc:title>Christian Reiner</dc:title>
          </cc:Agent>
        </dc:publisher>
        <dc:subject>
          <rdf:Bag>
            <rdf:li>_</rdf:li>
            <rdf:li>usage</rdf:li>
          </rdf:Bag>
        </dc:subject>
      </cc:Work>
      <cc:License
         rdf:about="http://creativecommons.org/licenses/by-nc-sa/3.0/">
        <cc:permits
           rdf:resource="http://creativecommons.org/ns#Reproduction" />
        <cc:permits
           rdf:resource="http://creativecommons.org/ns#Distribution" />
        <cc:requires
           rdf:resource="http://creativecommons.org/ns#Notice" />
        <cc:requires
           rdf:resource="http://creativecommons.org/ns#Attribution" />
        <cc:prohibits
           rdf:resource="http://creativecommons.org/ns#CommercialUse" />
        <cc:permits
           rdf:resource="http://creativecommons.org/ns#DerivativeWorks" />
        <cc:requires
           rdf:resource="http://creativecommons.org/ns#ShareAlike" />
      </cc:License>
    </rdf:RDF>
  </metadata>
  <sodipodi:namedview
     pagecolor="#ffffff"
     bordercolor="#666666"
     borderopacity="1"
     objecttolerance="10"
     gridtolerance="10"
     guidetolerance="10"
     inkscape:pageopacity="0"
     inkscape:pageshadow="2"
     inkscape:window-width="1920"
     inkscape:window-height="1114"
     id="namedview3035"
     showgrid="false"
     inkscape:zoom="11.206576"
     inkscape:cx="19.383489"
     inkscape:cy="30.437252"
     inkscape:window-x="-4"
     inkscape:window-y="-4"
     inkscape:window-maximized="1"
     inkscape:current-layer="svg3020" />
  <defs
     id="defs3022">
    <linearGradient
       id="gradient0"
       gradientTransform="matrix(0.935714,0,0,0.971429,-260.198,309.044)"
       gradientUnits="objectBoundingBox"
       x1="1.860629"
       y1="-2.2881174"
       x2="1.8891802"
       y2="-1.0919917"
       spreadMethod="pad">
      <stop
         stop-color="#edf4fd"
         offset="0"
         stop-opacity="0.52845044633"
         id="stop3025"
         style="stop-color:#eef4fd;stop-opacity:0.52845043;" />
      <stop
         stop-color="#175bb3"
         offset="1.00000000000"
         stop-opacity="0.00000000000"
         id="stop3027" />
    </linearGradient>
    <linearGradient
       inkscape:collect="always"
       xlink:href="#gradient0"
       id="linearGradient3787"
       gradientUnits="userSpaceOnUse"
       gradientTransform="scale(1.2307282,0.81252711)"
       spreadMethod="pad"
       x1="310.29999"
       y1="-381.5929"
       x2="315.06152"
       y2="-182.11314" />
    <radialGradient
       inkscape:collect="always"
       xlink:href="#gradient0"
       id="radialGradient6130"
       cx="31.997753"
       cy="21.222061"
       fx="31.997753"
       fy="21.222061"
       r="29.944143"
       gradientTransform="matrix(0.93444017,0,0,0.48806265,2.0977673,4.2611009)"
       gradientUnits="userSpaceOnUse" />
  </defs>
  <g
     id="text4182"
     transform="matrix(0.38466862,0,0,0.37986865,25.704051,11.607889)"
     style="fill:none" />
  <g
     id="g6132">
    <path
       style="fill:#000000"
       inkscape:connector-curvature="0"
       d="m 63.998188,32.00176 c 0,17.672471 -14.326473,31.99882 -31.999097,31.99882 C 14.326496,64.00058 -5.94477e-6,49.674231 -5.94477e-6,32.00176 -5.94477e-6,14.329318 14.326496,0.00293953 31.999091,0.00293953 c 17.672624,0 31.999097,14.32637847 31.999097,31.99882047 z"
       id="path4167" />
    <path
       style="fill:#000000"
       inkscape:connector-curvature="0"
       d="m 61.941058,32.400768 c 0,16.953474 -13.405476,30.696962 -29.94199,30.696962 -16.536487,0 -29.9419893,-13.743488 -29.9419893,-30.696962 0,-16.953447 13.4055023,-30.6969628 29.9419893,-30.6969628 16.536514,0 29.94199,13.7435158 29.94199,30.6969628 z"
       id="path4169" />
    <path
       style="fill:url(#radialGradient6130);fill-opacity:1"
       inkscape:connector-curvature="0"
       d="m 31.997694,0.0041785 c -15.452384,0 -27.980952,10.2944605 -27.980952,22.9858205 0,0.809537 0.05395,1.605267 0.1533662,2.393018 13.6507788,4.039268 34.5127478,6.982114 55.8085348,-2.285166 2.73e-4,-0.0358 0,-0.07161 0,-0.107852 0,-12.69136 -12.528648,-22.9858205 -27.980949,-22.9858205 z"
       id="path4171" />
  </g>
  <g
     id="text5197"
     style="fill:none"
     transform="matrix(0.33435595,0,0,0.36827184,15.248618,15.293842)">
    <path
       id="path5202"
       transform="scale(0.794213,0.724445)"
       d="m 80.7728,37.0436 1.7055,-7.5725 18.0097,0 -10.369,48.914 c -0.6368,3.0927 -0.9552,5.1393 -0.9551,6.1398 -1e-4,1.0461 0.25,1.8647 0.7504,2.4559 0.5457,0.5913 1.1824,0.8869 1.9102,0.8869 2.4558,0 5.6167,-1.5918 9.4825,-4.7754 3.911,-3.2291 7.3,-7.5952 10.165,-13.0983 2.91,-5.5486 4.366,-11.5974 4.366,-18.1466 0,-5.4576 -1.046,-10.5968 -3.138,-15.4178 -2.047,-4.8208 -5.026,-9.005 -8.937,-12.5525 -3.9114,-3.5474 -8.755,-6.3217 -14.5309,-8.3229 -5.7306,-2.001 -12.2342,-3.0016 -19.511,-3.0017 -7.4133,10e-5 -14.2126,0.9779 -20.3978,2.9335 -6.1854,1.9102 -11.6203,4.6845 -16.3047,8.3229 -4.6845,3.593 -8.5958,8.05 -11.7339,13.3711 -2.7743,4.6391 -4.8891,9.7783 -6.3445,15.4178 -1.4553,5.6396 -2.183,11.3928 -2.183,17.2597 0,7.8227 1.5463,14.9858 4.639,21.4894 3.1381,6.4582 7.6634,11.8701 13.5758,16.2361 5.9579,4.412 13.1437,7.527 21.5576,9.347 8.4138,1.864 17.9191,2.251 28.5161,1.159 8.4137,-1 15.5314,-2.91 21.3533,-5.73 5.866,-2.82 10.824,-6.777 14.872,-11.871 l 14.531,0 c -2.366,4.867 -5.458,9.21 -9.278,13.031 -3.775,3.82 -8.21,7.026 -13.303,9.619 -5.094,2.637 -10.802,4.639 -17.1236,6.003 -6.3219,1.364 -13.2121,2.047 -20.6708,2.047 -11.1882,0 -21.262,-1.479 -30.2216,-4.435 -8.9596,-2.91 -16.5093,-7.14 -22.6491,-12.689 C 12.4616,108.561 7.84532,101.989 4.7072,94.3486 1.56906,86.6625 -9.99995e-6,78.1805 0,68.9025 -9.99995e-6,59.2152 1.61454,50.1647 4.84364,41.7508 8.07272,33.337 12.7117,26.0375 18.7606,19.8521 24.8549,13.6214 32.2682,8.75503 41.0004,5.25296 49.778,1.75109 59.4425,1e-4 69.994,0 c 8.6412,1e-4 16.5547,1.27355 23.7407,3.82034 7.2313,2.5015 13.4163,6.11717 18.5563,10.84706 5.139,4.73 9.05,10.3468 11.733,16.8504 2.729,6.4582 4.093,13.5986 4.094,21.4211 -0.001,6.0944 -1.092,12.075 -3.275,17.942 -2.183,5.8214 -5.321,11.0744 -9.414,15.7588 -4.048,4.639 -8.824,8.3229 -14.327,11.0517 -5.5028,2.6836 -11.4379,4.0246 -17.805,4.0246 -3.684,0 -6.5493,-0.614 -8.5958,-1.8415 -2.0467,-1.2735 -3.4111,-3.2746 -4.0932,-6.0034 -3.9569,3.9113 -8.5049,6.3899 -13.6441,7.4359 -5.1393,1.001 -10.1194,0.523 -14.9402,-1.4325 -4.821,-2.0012 -8.7322,-5.344 -11.7339,-10.0284 -2.9562,-4.6845 -4.4343,-10.4604 -4.4343,-17.328 0,-7.1403 1.5235,-14.167 4.5707,-21.08 3.0927,-6.913 7.4587,-12.5752 13.0983,-16.9869 5.685,-4.4115 12.0977,-6.6173 19.2382,-6.6173 8.1863,0 14.1897,3.0699 18.0101,9.2097 M 43.4563,72.3817 c 0,5.4576 1.137,9.6418 3.411,12.5525 2.274,2.9108 5.2529,4.3661 8.9369,4.3661 4.2751,0 8.0272,-1.7055 11.2563,-5.1165 3.2745,-3.411 5.7532,-7.7089 7.436,-12.8936 1.6827,-5.2302 2.5241,-10.2785 2.5242,-15.1449 -1e-4,-2.4104 -0.2957,-4.5707 -0.8869,-6.481 -0.5458,-1.9555 -1.3872,-3.6611 -2.5241,-5.1165 -1.0916,-1.4553 -2.4333,-2.5468 -4.025,-3.2745 -1.5464,-0.7731 -3.3201,-1.1597 -5.3212,-1.1598 -4.0023,10e-5 -7.618,1.5691 -10.847,4.7072 -3.1837,3.0927 -5.6396,7.1404 -7.3678,12.1432 -1.7283,4.9574 -2.5924,10.0967 -2.5924,15.4178"
       inkscape:connector-curvature="0"
       style="fill:#eeeeee" />
  </g>
</svg>

<?xml version="1.0" encoding="UTF-8" standalone="no"?>
<!-- Created using Karbon, part of Calligra: http://www.calligra.org/karbon -->

<svg
   xmlns:dc="http://purl.org/dc/elements/1.1/"
   xmlns:cc="http://creativecommons.org/ns#"
   xmlns:rdf="http://www.w3.org/1999/02/22-rdf-syntax-ns#"
   xmlns:svg="http://www.w3.org/2000/svg"
   xmlns="http://www.w3.org/2000/svg"
   xmlns:sodipodi="http://sodipodi.sourceforge.net/DTD/sodipodi-0.dtd"
   xmlns:inkscape="http://www.inkscape.org/namespaces/inkscape"
   width="133.098pt"
   height="134.778pt"
   id="svg3091"
   version="1.1"
   inkscape:version="0.48.3.1 r9886"
   sodipodi:docname="email.svg">
  <title
     id="title3551">email</title>
  <metadata
     id="metadata3109">
    <rdf:RDF>
      <cc:Work
         rdf:about="">
        <dc:format>image/svg+xml</dc:format>
        <dc:type
           rdf:resource="http://purl.org/dc/dcmitype/StillImage" />
        <cc:license
           rdf:resource="http://creativecommons.org/licenses/by-nc-sa/3.0/" />
        <dc:title>email</dc:title>
        <dc:creator>
          <cc:Agent>
            <dc:title>Christian Reiner</dc:title>
          </cc:Agent>
        </dc:creator>
        <dc:rights>
          <cc:Agent>
            <dc:title>Copyright 2012, Christian Reiner, Hamburg, Germany</dc:title>
          </cc:Agent>
        </dc:rights>
        <dc:publisher>
          <cc:Agent>
            <dc:title>Christian Reiner</dc:title>
          </cc:Agent>
        </dc:publisher>
        <dc:subject>
          <rdf:Bag>
            <rdf:li>email</rdf:li>
            <rdf:li>usage</rdf:li>
          </rdf:Bag>
        </dc:subject>
      </cc:Work>
      <cc:License
         rdf:about="http://creativecommons.org/licenses/by-nc-sa/3.0/">
        <cc:permits
           rdf:resource="http://creativecommons.org/ns#Reproduction" />
        <cc:permits
           rdf:resource="http://creativecommons.org/ns#Distribution" />
        <cc:requires
           rdf:resource="http://creativecommons.org/ns#Notice" />
        <cc:requires
           rdf:resource="http://creativecommons.org/ns#Attribution" />
        <cc:prohibits
           rdf:resource="http://creativecommons.org/ns#CommercialUse" />
        <cc:permits
           rdf:resource="http://creativecommons.org/ns#DerivativeWorks" />
        <cc:requires
           rdf:resource="http://creativecommons.org/ns#ShareAlike" />
      </cc:License>
    </rdf:RDF>
  </metadata>
  <sodipodi:namedview
     pagecolor="#ffffff"
     bordercolor="#666666"
     borderopacity="1"
     objecttolerance="10"
     gridtolerance="10"
     guidetolerance="10"
     inkscape:pageopacity="0"
     inkscape:pageshadow="2"
     inkscape:window-width="1920"
     inkscape:window-height="1114"
     id="namedview3107"
     showgrid="false"
     inkscape:zoom="1.4008221"
     inkscape:cx="-57.802385"
     inkscape:cy="84.236252"
     inkscape:window-x="-4"
     inkscape:window-y="-4"
     inkscape:window-maximized="1"
     inkscape:current-layer="svg3091" />
  <defs
     id="defs3093">
    <linearGradient
       id="gradient0"
       gradientTransform="matrix(0.935714 0 0 0.971429 -260.198 309.044)"
       gradientUnits="objectBoundingBox"
       x1="1.86062868749"
       y1="-2.28811738018"
       x2="1.88917986746"
       y2="-1.09199169808"
       spreadMethod="pad">
      <stop
         stop-color="#edf4fd"
         offset="0.00000000000"
         stop-opacity="0.52845044633"
         id="stop3096" />
      <stop
         stop-color="#175bb3"
         offset="1.00000000000"
         stop-opacity="0.00000000000"
         id="stop3098" />
    </linearGradient>
  </defs>
  <g
     id="layer1">
    <g
       id="g5473"
       transform="translate(1.28609e-06, 3.64259e-06)"
       fill="none">
      <path
         id="path5063"
         transform="matrix(0.758527 0 0 0.768105 -2.64698e-22 0)"
         fill="#000000"
         d="M219.336 109.668C219.336 170.236 170.236 219.336 109.668 219.336C49.1001 219.336 0 170.236 0 109.668C0 49.1001 49.1001 0 109.668 0C170.236 0 219.336 49.1001 219.336 109.668Z" />
      <path
         id="path5065"
         transform="matrix(0.709764 0 0 0.736855 5.34768 4.47751)"
         fill="#000000"
         d="M219.336 109.668C219.336 170.236 170.236 219.336 109.668 219.336C49.1001 219.336 0 170.236 0 109.668C0 49.1001 49.1001 0 109.668 0C170.236 0 219.336 49.1001 219.336 109.668Z" />
      <g
         id="text5197"
         transform="translate(30.5827, 32.9153)"
         fill="none">
        <path
           id="path5202"
           transform="matrix(0.794213 0 0 0.724445 -1.42109e-13 4.44089e-15)"
           fill="#eeeeee"
           d="M80.7728 37.0436L82.4783 29.4711L100.488 29.4711L90.119 78.3851C89.4822 81.4778 89.1638 83.5244 89.1639 84.5249C89.1638 85.571 89.4139 86.3896 89.9143 86.9808C90.46 87.5721 91.0967 87.8677 91.8245 87.8677C94.2803 87.8677 97.4412 86.2759 101.307 83.0923C105.218 79.8632 108.607 75.4971 111.472 69.994C114.382 64.4454 115.838 58.3966 115.838 51.8474C115.838 46.3898 114.792 41.2506 112.7 36.4296C110.653 31.6088 107.674 27.4246 103.763 23.8771C99.8516 20.3297 95.008 17.5554 89.2321 15.5542C83.5015 13.5532 76.9979 12.5526 69.7211 12.5525C62.3078 12.5526 55.5085 13.5304 49.3233 15.486C43.1379 17.3962 37.703 20.1705 33.0186 23.8089C28.3341 27.4019 24.4228 31.8589 21.2847 37.18C18.5104 41.8191 16.3956 46.9583 14.9402 52.5978C13.4849 58.2374 12.7572 63.9906 12.7572 69.8575C12.7572 77.6802 14.3035 84.8433 17.3962 91.3469C20.5343 97.8051 25.0596 103.217 30.972 107.583C36.9299 111.995 44.1157 115.11 52.5296 116.93C60.9434 118.794 70.4487 119.181 81.0457 118.089C89.4594 117.089 96.5771 115.179 102.399 112.359C108.265 109.539 113.223 105.582 117.271 100.488L131.802 100.488C129.436 105.355 126.344 109.698 122.524 113.519C118.749 117.339 114.314 120.545 109.221 123.138C104.127 125.775 98.419 127.777 92.0974 129.141C85.7755 130.505 78.8853 131.188 71.4266 131.188C60.2384 131.188 50.1646 129.709 41.205 126.753C32.2454 123.843 24.6957 119.613 18.5559 114.064C12.4616 108.561 7.84532 101.989 4.7072 94.3486C1.56906 86.6625 -9.99995e-06 78.1805 4.79758e-11 68.9025C-9.99995e-06 59.2152 1.61454 50.1647 4.84364 41.7508C8.07272 33.337 12.7117 26.0375 18.7606 19.8521C24.8549 13.6214 32.2682 8.75503 41.0004 5.25296C49.778 1.75109 59.4425 0.0001 69.994 0C78.6352 0.0001 86.5487 1.27355 93.7347 3.82034C100.966 6.32184 107.151 9.93751 112.291 14.6674C117.43 19.3974 121.341 25.0142 124.024 31.5178C126.753 37.976 128.117 45.1164 128.118 52.9389C128.117 59.0333 127.026 65.0139 124.843 70.8809C122.66 76.7023 119.522 81.9553 115.429 86.6397C111.381 91.2787 106.605 94.9626 101.102 97.6914C95.5992 100.375 89.6641 101.716 83.297 101.716C79.613 101.716 76.7477 101.102 74.7012 99.8745C72.6545 98.601 71.2901 96.5999 70.608 93.8711C66.6511 97.7824 62.1031 100.261 56.9639 101.307C51.8246 102.308 46.8445 101.83 42.0237 99.8745C37.2027 97.8733 33.2915 94.5305 30.2898 89.8461C27.3336 85.1616 25.8555 79.3857 25.8555 72.5181C25.8555 65.3778 27.379 58.3511 30.4262 51.4381C33.5189 44.5251 37.8849 38.8629 43.5245 34.4512C49.2095 30.0397 55.6222 27.8339 62.7627 27.8339C70.949 27.8339 76.9524 30.9038 80.7728 37.0436M43.4563 72.3817C43.4563 77.8393 44.5933 82.0235 46.8673 84.9342C49.1413 87.845 52.1202 89.3003 55.8042 89.3003C60.0793 89.3003 63.8314 87.5948 67.0605 84.1838C70.335 80.7728 72.8137 76.4749 74.4965 71.2902C76.1792 66.06 77.0206 61.0117 77.0207 56.1453C77.0206 53.7349 76.725 51.5746 76.1338 49.6643C75.588 47.7088 74.7466 46.0032 73.6097 44.5478C72.5181 43.0925 71.1764 42.001 69.5847 41.2733C68.0383 40.5002 66.2646 40.1136 64.2635 40.1135C60.2612 40.1136 56.6455 41.6826 53.4165 44.8207C50.2328 47.9134 47.7769 51.9611 46.0487 56.9639C44.3204 61.9213 43.4563 67.0606 43.4563 72.3817" />
      </g>
      <path
         id="path5067"
         transform="matrix(0.758527 0 0 0.758527 5.33866 4.46647)"
         fill="url(#gradient0)"
         d="M102.625 0C45.9507 0 0 47.725 0 106.562C0 110.315 0.1979 114.004 0.5625 117.656C50.6291 136.382 127.144 150.025 205.25 107.062C205.251 106.896 205.25 106.73 205.25 106.562C205.25 47.725 159.299 0 102.625 0Z" />
    </g>
  </g>
</svg>
